X: 1
T: Don't Call Me Gian
M: 4/4
L: 1/8
R: reel
K: Edor
B2ed AdBF|~G3B AGFG|EBBA GFGA|Beed BAGA|
B2ed AdBF|~G3B AGFG|EDEF GFGA|1Befd e3d:|2Befd e3f||
gBdf gBeg|~f3e dBAG|BEEF GFGA|Beed BABf|
gBdf gBeg|~f3e dBAG|EDEF GFGA|1Befd e3f:|2Befd e3d||
